src/assets/images/icons/queryError.svg

<svg  viewBox="0 0 144 124" fill="none" xmlns="http://www.w3.org/2000/svg">
<path d="M71.1286 109C100.053 109 123.503 85.5913 123.503 56.614C123.503 27.6367 99.9501 4.22803 71.1286 4.22803C42.2037 4.22803 18.7539 27.6367 18.7539 56.614C18.7539 85.5913 42.2037 109 71.1286 109Z" fill="#EAEEF9"/>
<path d="M120.095 22.2744C122.434 22.2744 124.33 20.3814 124.33 18.0464C124.33 15.7113 122.434 13.8184 120.095 13.8184C117.756 13.8184 115.859 15.7113 115.859 18.0464C115.859 20.3814 117.756 22.2744 120.095 22.2744Z" fill="#EAEEF9"/>
<path d="M126.293 5.77483C127.89 5.77483 129.185 4.48209 129.185 2.88742C129.185 1.29274 127.89 0 126.293 0C124.695 0 123.4 1.29274 123.4 2.88742C123.4 4.48209 124.695 5.77483 126.293 5.77483Z" fill="#EAEEF9"/>
<path d="M21.5429 22.1713C23.1404 22.1713 24.4354 20.8786 24.4354 19.2839C24.4354 17.6892 23.1404 16.3965 21.5429 16.3965C19.9454 16.3965 18.6504 17.6892 18.6504 19.2839C18.6504 20.8786 19.9454 22.1713 21.5429 22.1713Z" fill="#EAEEF9"/>
<path d="M9.37176 84.589C12.3385 84.589 14.7435 82.1882 14.7435 79.2266C14.7435 76.2651 12.3385 73.8643 9.37176 73.8643C6.40502 73.8643 4 76.2651 4 79.2266C4 82.1882 6.40502 84.589 9.37176 84.589Z" fill="#EAEEF9"/>
<path d="M143.998 95.1994C143.923 97.7451 141.673 99.6918 139.123 99.6918H106.121C104.921 99.6918 103.946 100.59 103.871 101.713C103.796 102.986 104.771 103.96 106.046 103.96H114.447C114.972 103.96 115.422 104.409 115.422 104.933C115.422 105.457 114.972 105.906 114.447 105.906H64.9439C62.3937 105.906 60.2186 103.96 60.0686 101.414C59.9936 98.7933 62.0937 96.622 64.7189 96.622H71.9943C73.0443 96.4722 73.9444 95.5738 73.9444 94.4507C73.9444 93.2527 72.9693 92.2794 71.7693 92.2794H49.418C45.6678 92.2794 42.4426 89.5091 42.2176 85.7654C41.9176 81.7223 45.1428 78.353 49.193 78.353H115.047C118.872 78.353 122.022 81.4977 122.022 85.3162C122.022 86.9634 121.422 88.4609 120.522 89.6588C120.972 89.8834 121.347 90.1081 121.722 90.4075H139.573C141.973 90.4824 144.073 92.5789 143.998 95.1994Z" fill="#C0D6FF"/>
<g filter="url(#filter0_d_2193:139058)">
<path d="M94.907 30.2271L75.1809 34.0456L42.104 40.4846L27.5532 43.3298C24.928 43.8539 23.1279 46.2498 23.3529 48.9453L26.2031 80.7662C26.4281 83.3867 28.6782 85.4832 31.3034 85.4832L99.9323 86.3068L94.907 30.2271Z" fill="url(#paint0_linear_2193:139058)"/>
</g>
<path d="M75.9309 33.9707L42.854 40.4098C42.479 42.2067 42.329 44.0037 42.554 45.8755C43.454 55.9833 52.3795 63.3957 62.4301 62.4972C72.4807 61.5988 79.9061 52.6889 79.006 42.6559C78.706 39.4364 77.6559 36.5164 75.9309 33.9707Z" fill="url(#paint1_linear_2193:139058)"/>
<g filter="url(#filter1_d_2193:139058)">
<path d="M77 34L27.5532 43.3298C24.928 43.8539 23.1279 46.2498 23.3529 48.9453L26.2031 80.7662C26.4281 83.3867 28.6782 85.4832 31.3034 85.4832L98.8255 86.2935C99.4177 86.3006 99.8863 85.7943 99.8335 85.2043L95.0063 31.3355C94.9533 30.7434 94.3985 30.3281 93.8154 30.4439L88.5 31.5M85.0439 32.1363L80.1124 33.0909" stroke="#6F7590" stroke-linecap="round"/>
</g>
<g filter="url(#filter2_d_2193:139058)">
<path d="M103.081 32.4737L107.657 82.7133C107.657 83.0877 107.432 83.4621 107.057 83.5369L101.581 84.7349L96.7061 31.5752L102.331 31.7249C102.706 31.7249 103.006 32.0993 103.081 32.4737Z" fill="url(#paint2_linear_2193:139058)"/>
</g>
<g filter="url(#filter3_d_2193:139058)">
<path d="M106 66.5L104.225 45.0336L103.081 32.4737C103.006 32.0993 102.706 31.7249 102.331 31.7249L96.7061 31.5752L101.581 84.7349L107.057 83.5369C107.432 83.4621 107.657 83.0877 107.657 82.7133L107.085 76.4334L106.513 70.1534" stroke="#6F7590"/>
</g>
<g filter="url(#filter4_d_2193:139058)">
<path d="M90.5566 28.2808L96.107 89.0775C96.182 89.5267 96.632 89.8262 97.007 89.6016L102.407 87.5052C103.082 87.2057 103.532 86.4569 103.457 85.7082L98.4321 30.0777C98.3571 29.329 97.8321 28.73 97.082 28.5054L91.3817 27.532C90.9317 27.4572 90.5566 27.8315 90.5566 28.2808Z" fill="url(#paint3_linear_2193:139058)"/>
</g>
<g filter="url(#filter5_d_2193:139058)">
<path d="M93.3318 58.6791L96.107 89.0775C96.182 89.5267 96.632 89.8262 97.007 89.6016L102.407 87.5052C103.082 87.2057 103.532 86.4569 103.457 85.7082L98.4321 30.0777C98.3571 29.329 97.8321 28.73 97.082 28.5054L91.3817 27.532C90.9317 27.4572 90.5566 27.8315 90.5566 28.2808L91.2504 35.8804M91.3817 40L93.3318 56" stroke="#6F7590"/>
</g>
<defs>
<filter id="filter0_d_2193:139058" x="1.33398" y="19.2271" width="120.599" height="100.08" filterUnits="userSpaceOnUse" color-interpolation-filters="sRGB">
<feFlood flood-opacity="0" result="BackgroundImageFix"/>
<feColorMatrix in="SourceAlpha" type="matrix" values="0 0 0 0 0 0 0 0 0 0 0 0 0 0 0 0 0 0 127 0" result="hardAlpha"/>
<feOffset dy="11"/>
<feGaussianBlur stdDeviation="11"/>
<feColorMatrix type="matrix" values="0 0 0 0 0.397708 0 0 0 0 0.47749 0 0 0 0 0.575 0 0 0 0.27 0"/>
<feBlend mode="normal" in2="BackgroundImageFix" result="effect1_dropShadow_2193:139058"/>
<feBlend mode="normal" in="SourceGraphic" in2="effect1_dropShadow_2193:139058" result="shape"/>
</filter>
<filter id="filter1_d_2193:139058" x="0.833984" y="18.9243" width="121.504" height="100.869" filterUnits="userSpaceOnUse" color-interpolation-filters="sRGB">
<feFlood flood-opacity="0" result="BackgroundImageFix"/>
<feColorMatrix in="SourceAlpha" type="matrix" values="0 0 0 0 0 0 0 0 0 0 0 0 0 0 0 0 0 0 127 0" result="hardAlpha"/>
<feOffset dy="11"/>
<feGaussianBlur stdDeviation="11"/>
<feColorMatrix type="matrix" values="0 0 0 0 0.397708 0 0 0 0 0.47749 0 0 0 0 0.575 0 0 0 0.27 0"/>
<feBlend mode="normal" in2="BackgroundImageFix" result="effect1_dropShadow_2193:139058"/>
<feBlend mode="normal" in="SourceGraphic" in2="effect1_dropShadow_2193:139058" result="shape"/>
</filter>
<filter id="filter2_d_2193:139058" x="74.7061" y="20.5752" width="54.9502" height="97.1597" filterUnits="userSpaceOnUse" color-interpolation-filters="sRGB">
<feFlood flood-opacity="0" result="BackgroundImageFix"/>
<feColorMatrix in="SourceAlpha" type="matrix" values="0 0 0 0 0 0 0 0 0 0 0 0 0 0 0 0 0 0 127 0" result="hardAlpha"/>
<feOffset dy="11"/>
<feGaussianBlur stdDeviation="11"/>
<feColorMatrix type="matrix" values="0 0 0 0 0.397708 0 0 0 0 0.47749 0 0 0 0 0.575 0 0 0 0.27 0"/>
<feBlend mode="normal" in2="BackgroundImageFix" result="effect1_dropShadow_2193:139058"/>
<feBlend mode="normal" in="SourceGraphic" in2="effect1_dropShadow_2193:139058" result="shape"/>
</filter>
<filter id="filter3_d_2193:139058" x="74.1572" y="20.0605" width="55.999" height="98.2837" filterUnits="userSpaceOnUse" color-interpolation-filters="sRGB">
<feFlood flood-opacity="0" result="BackgroundImageFix"/>
<feColorMatrix in="SourceAlpha" type="matrix" values="0 0 0 0 0 0 0 0 0 0 0 0 0 0 0 0 0 0 127 0" result="hardAlpha"/>
<feOffset dy="11"/>
<feGaussianBlur stdDeviation="11"/>
<feColorMatrix type="matrix" values="0 0 0 0 0.397708 0 0 0 0 0.47749 0 0 0 0 0.575 0 0 0 0.27 0"/>
<feBlend mode="normal" in2="BackgroundImageFix" result="effect1_dropShadow_2193:139058"/>
<feBlend mode="normal" in="SourceGraphic" in2="effect1_dropShadow_2193:139058" result="shape"/>
</filter>
<filter id="filter4_d_2193:139058" x="68.5566" y="16.5225" width="56.9092" height="106.156" filterUnits="userSpaceOnUse" color-interpolation-filters="sRGB">
<feFlood flood-opacity="0" result="BackgroundImageFix"/>
<feColorMatrix in="SourceAlpha" type="matrix" values="0 0 0 0 0 0 0 0 0 0 0 0 0 0 0 0 0 0 127 0" result="hardAlpha"/>
<feOffset dy="11"/>
<feGaussianBlur stdDeviation="11"/>
<feColorMatrix type="matrix" values="0 0 0 0 0.397708 0 0 0 0 0.47749 0 0 0 0 0.575 0 0 0 0.27 0"/>
<feBlend mode="normal" in2="BackgroundImageFix" result="effect1_dropShadow_2193:139058"/>
<feBlend mode="normal" in="SourceGraphic" in2="effect1_dropShadow_2193:139058" result="shape"/>
</filter>
<filter id="filter5_d_2193:139058" x="68.0566" y="16.0215" width="57.9092" height="107.157" filterUnits="userSpaceOnUse" color-interpolation-filters="sRGB">
<feFlood flood-opacity="0" result="BackgroundImageFix"/>
<feColorMatrix in="SourceAlpha" type="matrix" values="0 0 0 0 0 0 0 0 0 0 0 0 0 0 0 0 0 0 127 0" result="hardAlpha"/>
<feOffset dy="11"/>
<feGaussianBlur stdDeviation="11"/>
<feColorMatrix type="matrix" values="0 0 0 0 0.397708 0 0 0 0 0.47749 0 0 0 0 0.575 0 0 0 0.27 0"/>
<feBlend mode="normal" in2="BackgroundImageFix" result="effect1_dropShadow_2193:139058"/>
<feBlend mode="normal" in="SourceGraphic" in2="effect1_dropShadow_2193:139058" result="shape"/>
</filter>
<linearGradient id="paint0_linear_2193:139058" x1="61.6082" y1="28.9299" x2="61.6082" y2="86.9114" gradientUnits="userSpaceOnUse">
<stop stop-color="#FDFEFF"/>
<stop offset="0.9964" stop-color="#ECF0F5"/>
</linearGradient>
<linearGradient id="paint1_linear_2193:139058" x1="42.4587" y1="48.2845" x2="79.0978" y2="48.2845" gradientUnits="userSpaceOnUse">
<stop stop-color="#83A6FF"/>
<stop offset="1" stop-color="#5277D7"/>
</linearGradient>
<linearGradient id="paint2_linear_2193:139058" x1="102.178" y1="30.3456" x2="102.178" y2="85.308" gradientUnits="userSpaceOnUse">
<stop stop-color="#FDFEFF"/>
<stop offset="0.9964" stop-color="#ECF0F5"/>
</linearGradient>
<linearGradient id="paint3_linear_2193:139058" x1="97.0069" y1="26.0847" x2="97.0069" y2="90.3481" gradientUnits="userSpaceOnUse">
<stop stop-color="#FDFEFF"/>
<stop offset="0.9964" stop-color="#ECF0F5"/>
</linearGradient>
</defs>
</svg>

<svg width="144" height="124" fill="none" xmlns="http://www.w3.org/2000/svg"><path d="M71.129 109c28.924 0 52.374-23.408 52.374-52.386 0-28.977-23.553-52.385-52.374-52.385-28.925 0-52.375 23.408-52.375 52.386 0 28.977 23.45 52.385 52.375 52.385Zm48.966-86.726a4.231 4.231 0 0 0 4.235-4.228 4.231 4.231 0 0 0-4.235-4.228 4.232 4.232 0 0 0-4.236 4.228 4.232 4.232 0 0 0 4.236 4.228Zm6.198-16.499a2.89 2.89 0 0 0 2.892-2.888A2.89 2.89 0 0 0 126.293 0a2.89 2.89 0 0 0-2.893 2.887 2.89 2.89 0 0 0 2.893 2.888ZM21.543 22.171a2.89 2.89 0 0 0 2.892-2.887 2.89 2.89 0 0 0-2.892-2.887 2.89 2.89 0 0 0-2.893 2.887 2.89 2.89 0 0 0 2.893 2.887ZM9.372 84.589c2.966 0 5.371-2.4 5.371-5.362a5.367 5.367 0 0 0-5.371-5.363A5.367 5.367 0 0 0 4 79.227a5.367 5.367 0 0 0 5.372 5.362Z" fill="#EAEEF9"/><path d="M143.998 95.2c-.075 2.546-2.325 4.492-4.875 4.492h-33.002c-1.2 0-2.175.899-2.25 2.022-.075 1.273.9 2.246 2.175 2.246h8.401c.525 0 .975.449.975.973s-.45.974-.975.974H64.944c-2.55 0-4.725-1.947-4.875-4.493a4.655 4.655 0 0 1 4.65-4.791h7.275c1.05-.15 1.95-1.049 1.95-2.172a2.175 2.175 0 0 0-2.175-2.171H49.418c-3.75 0-6.975-2.77-7.2-6.514-.3-4.043 2.925-7.413 6.975-7.413h65.854c3.825 0 6.975 3.145 6.975 6.964 0 1.647-.6 3.144-1.5 4.342.45.225.825.45 1.2.749h17.851c2.4.075 4.5 2.171 4.425 4.792Z" fill="#C0D6FF"/><g filter="url(#queryError__a)"><path d="m94.907 30.227-19.726 3.818-33.077 6.44-14.55 2.844c-2.626.524-4.426 2.92-4.201 5.616l2.85 31.82c.225 2.621 2.475 4.718 5.1 4.718l68.63.823-5.026-56.08Z" fill="url(#queryError__b)"/></g><path d="m75.93 33.97-33.076 6.44c-.375 1.797-.525 3.594-.3 5.466.9 10.107 9.825 17.52 19.876 16.621 10.05-.898 17.476-9.808 16.576-19.841-.3-3.22-1.35-6.14-3.075-8.685Z" fill="url(#queryError__c)"/><g filter="url(#queryError__d)"><path d="m77 34-49.447 9.33c-2.625.523-4.425 2.92-4.2 5.615l2.85 31.82c.225 2.621 2.475 4.718 5.1 4.718l67.523.81a1 1 0 0 0 1.008-1.09l-4.828-53.868a1 1 0 0 0-1.19-.892L88.5 31.5m-3.456.637-4.932.954" stroke="#6F7590" stroke-linecap="round"/></g><g filter="url(#queryError__e)"><path d="m103.081 32.474 4.576 50.24c0 .374-.225.748-.6.823l-5.476 1.198-4.875-53.16 5.625.15c.375 0 .675.374.75.749Z" fill="url(#queryError__f)"/></g><g filter="url(#queryError__g)"><path d="m106 66.5-1.775-21.466-1.144-12.56c-.075-.375-.375-.75-.75-.75l-5.625-.149 4.875 53.16 5.476-1.198c.375-.075.6-.45.6-.824l-.572-6.28-.572-6.28" stroke="#6F7590"/></g><g filter="url(#queryError__h)"><path d="m90.557 28.28 5.55 60.797c.075.45.525.75.9.525l5.4-2.097c.675-.3 1.125-1.048 1.05-1.797l-5.025-55.63c-.075-.749-.6-1.348-1.35-1.573l-5.7-.973c-.45-.075-.825.3-.825.749Z" fill="url(#queryError__i)"/></g><g filter="url(#queryError__j)"><path d="m93.332 58.68 2.775 30.398c.075.449.525.748.9.524l5.4-2.097c.675-.3 1.125-1.048 1.05-1.797l-5.025-55.63c-.075-.749-.6-1.348-1.35-1.573l-5.7-.973c-.45-.075-.825.3-.825.749l.693 7.6M91.382 40l1.95 16" stroke="#6F7590"/></g><defs><filter id="queryError__a" x="1.334" y="19.227" width="120.598" height="100.08" filterUnits="userSpaceOnUse" color-interpolation-filters="sRGB"><feFlood flood-opacity="0" result="BackgroundImageFix"/><feColorMatrix in="SourceAlpha" values="0 0 0 0 0 0 0 0 0 0 0 0 0 0 0 0 0 0 127 0" result="hardAlpha"/><feOffset dy="11"/><feGaussianBlur stdDeviation="11"/><feColorMatrix values="0 0 0 0 0.397708 0 0 0 0 0.47749 0 0 0 0 0.575 0 0 0 0.27 0"/><feBlend in2="BackgroundImageFix" result="effect1_dropShadow_2825_165299"/><feBlend in="SourceGraphic" in2="effect1_dropShadow_2825_165299" result="shape"/></filter><filter id="queryError__d" x=".834" y="18.924" width="121.504" height="100.869" filterUnits="userSpaceOnUse" color-interpolation-filters="sRGB"><feFlood flood-opacity="0" result="BackgroundImageFix"/><feColorMatrix in="SourceAlpha" values="0 0 0 0 0 0 0 0 0 0 0 0 0 0 0 0 0 0 127 0" result="hardAlpha"/><feOffset dy="11"/><feGaussianBlur stdDeviation="11"/><feColorMatrix values="0 0 0 0 0.397708 0 0 0 0 0.47749 0 0 0 0 0.575 0 0 0 0.27 0"/><feBlend in2="BackgroundImageFix" result="effect1_dropShadow_2825_165299"/><feBlend in="SourceGraphic" in2="effect1_dropShadow_2825_165299" result="shape"/></filter><filter id="queryError__e" x="74.706" y="20.575" width="54.951" height="97.16" filterUnits="userSpaceOnUse" color-interpolation-filters="sRGB"><feFlood flood-opacity="0" result="BackgroundImageFix"/><feColorMatrix in="SourceAlpha" values="0 0 0 0 0 0 0 0 0 0 0 0 0 0 0 0 0 0 127 0" result="hardAlpha"/><feOffset dy="11"/><feGaussianBlur stdDeviation="11"/><feColorMatrix values="0 0 0 0 0.397708 0 0 0 0 0.47749 0 0 0 0 0.575 0 0 0 0.27 0"/><feBlend in2="BackgroundImageFix" result="effect1_dropShadow_2825_165299"/><feBlend in="SourceGraphic" in2="effect1_dropShadow_2825_165299" result="shape"/></filter><filter id="queryError__g" x="74.157" y="20.061" width="56" height="98.284" filterUnits="userSpaceOnUse" color-interpolation-filters="sRGB"><feFlood flood-opacity="0" result="BackgroundImageFix"/><feColorMatrix in="SourceAlpha" values="0 0 0 0 0 0 0 0 0 0 0 0 0 0 0 0 0 0 127 0" result="hardAlpha"/><feOffset dy="11"/><feGaussianBlur stdDeviation="11"/><feColorMatrix values="0 0 0 0 0.397708 0 0 0 0 0.47749 0 0 0 0 0.575 0 0 0 0.27 0"/><feBlend in2="BackgroundImageFix" result="effect1_dropShadow_2825_165299"/><feBlend in="SourceGraphic" in2="effect1_dropShadow_2825_165299" result="shape"/></filter><filter id="queryError__h" x="68.557" y="16.523" width="56.909" height="106.155" filterUnits="userSpaceOnUse" color-interpolation-filters="sRGB"><feFlood flood-opacity="0" result="BackgroundImageFix"/><feColorMatrix in="SourceAlpha" values="0 0 0 0 0 0 0 0 0 0 0 0 0 0 0 0 0 0 127 0" result="hardAlpha"/><feOffset dy="11"/><feGaussianBlur stdDeviation="11"/><feColorMatrix values="0 0 0 0 0.397708 0 0 0 0 0.47749 0 0 0 0 0.575 0 0 0 0.27 0"/><feBlend in2="BackgroundImageFix" result="effect1_dropShadow_2825_165299"/><feBlend in="SourceGraphic" in2="effect1_dropShadow_2825_165299" result="shape"/></filter><filter id="queryError__j" x="68.057" y="16.021" width="57.909" height="107.156" filterUnits="userSpaceOnUse" color-interpolation-filters="sRGB"><feFlood flood-opacity="0" result="BackgroundImageFix"/><feColorMatrix in="SourceAlpha" values="0 0 0 0 0 0 0 0 0 0 0 0 0 0 0 0 0 0 127 0" result="hardAlpha"/><feOffset dy="11"/><feGaussianBlur stdDeviation="11"/><feColorMatrix values="0 0 0 0 0.397708 0 0 0 0 0.47749 0 0 0 0 0.575 0 0 0 0.27 0"/><feBlend in2="BackgroundImageFix" result="effect1_dropShadow_2825_165299"/><feBlend in="SourceGraphic" in2="effect1_dropShadow_2825_165299" result="shape"/></filter><linearGradient id="queryError__b" x1="61.608" y1="28.929" x2="61.608" y2="86.911" gradientUnits="userSpaceOnUse"><stop stop-color="#FDFEFF"/><stop offset=".996" stop-color="#ECF0F5"/></linearGradient><linearGradient id="queryError__c" x1="42.459" y1="48.285" x2="79.098" y2="48.285" gradientUnits="userSpaceOnUse"><stop stop-color="#BDCDF4"/><stop offset="1" stop-color="#BDCDF4"/></linearGradient><linearGradient id="queryError__f" x1="102.178" y1="30.346" x2="102.178" y2="85.308" gradientUnits="userSpaceOnUse"><stop stop-color="#FDFEFF"/><stop offset=".996" stop-color="#ECF0F5"/></linearGradient><linearGradient id="queryError__i" x1="97.007" y1="26.085" x2="97.007" y2="90.348" gradientUnits="userSpaceOnUse"><stop stop-color="#FDFEFF"/><stop offset=".996" stop-color="#ECF0F5"/></linearGradient></defs></svg>
